X: 22205
T: La Chaîne Du Reel
R: jig
M: 6/8
K: Cmajor
|:e/f/|g2 g gec|Gce gag|fef def|a2 g ece|
g2 g gec|Gce gag|fdB GAB|1 cGE [C2c2]:|2 c2 c c2||
K: GMaj
|:B/c/|d^cd e2 d|^c2 d B2 g|fed cBc|edc BGB|
d^cd e2 d|^c2 d B2 g|faf def|g2 f g2:|

